assets/img/facebook.svg

<svg width="50" height="50" viewBox="0 0 50 50" fill="none" xmlns="http://www.w3.org/2000/svg">
<path d="M30.6166 26.5616L31.329 22.0393H26.9406V19.0998C26.9406 17.8632 27.5533 16.6549 29.5124 16.6549H31.5356V12.8038C30.3574 12.6161 29.1669 12.5146 27.9736 12.5C24.3617 12.5 22.0037 14.6693 22.0037 18.591V22.0393H18V26.5616H22.0037V37.5H26.9406V26.5616H30.6166Z" fill="#337FFF"/>
</svg>

<svg xmlns="http://www.w3.org/2000/svg" width="50" height="50" fill="none"><path fill="#337FFF" d="m30.617 26.562.712-4.523h-4.388V19.1c0-1.236.612-2.444 2.571-2.444h2.024v-3.851a24.55 24.55 0 0 0-3.562-.304c-3.612 0-5.97 2.17-5.97 6.091v3.448H18v4.523h4.004V37.5h4.937V26.562h3.676Z"/></svg>
